src/assets/font-icons/chain-tron.svg

<svg xmlns="http://www.w3.org/2000/svg" width="768" height="768" fill="none"><path fill="#000" d="M313.198 663.015 107.215 121.62c-2.773-6.34-2.895-13.851.279-20.466a25.2 25.2 0 0 1 3.156-5.202c3.975-5.049 9.329-8.575 15.498-9.07 6.212.001 12.95 1.228 12.95 1.228l403.35 70.436c4.287.855 9.084 2.757 12.984 7.033l97.365 95.139c5.016 3.666 8.802 9.264 9.817 16.1 1.256 8.455-2.001 16.569-7.782 21.927L356.158 671.79a24.97 24.97 0 0 1-13.836 8.433c-4.89 1.067-6.375 1.067-9.907.267-9.431-1.834-16.635-8.833-19.22-17.476zm12.515-106.494 31.632-227.832L186.33 189.534l139.383 366.989zM218.805 152.157l164.478 133.838 100.06-87.675zM578.574 314.4l-172.452 25.515-32.075 229.869 204.528-255.382zm-40.929-97.386-73.064 64.062 120.239-17.788-47.175-46.272z"/></svg>

<svg width="768" height="768" viewBox="0 0 768 768" fill="none" xmlns="http://www.w3.org/2000/svg">
  <path d="M313.198 663.015L107.215 121.62C104.442 115.28 104.32 107.769 107.494 101.154C108.322 99.3226 109.375 97.5721 110.65 95.9521C114.625 90.9031 119.979 87.3766 126.148 86.8816C132.36 86.8831 139.098 88.1101 139.098 88.1101L542.448 158.546C546.735 159.401 551.532 161.303 555.432 165.579L652.797 260.718C657.813 264.384 661.599 269.982 662.614 276.818C663.87 285.273 660.613 293.387 654.832 298.745L356.158 671.79C352.645 676.029 347.757 679.031 342.322 680.223C337.432 681.29 335.947 681.29 332.415 680.49C322.984 678.656 315.78 671.657 313.195 663.014L313.198 663.015ZM325.713 556.521L357.345 328.689L186.33 189.534L325.713 556.523V556.521ZM218.805 152.157L383.283 285.995L483.343 198.32L218.805 152.157ZM578.574 314.4L406.122 339.915L374.047 569.784L578.575 314.402L578.574 314.4ZM537.645 217.014L464.581 281.076L584.82 263.288L537.645 217.016V217.014Z" fill="black"/>
</svg>
